src/icons/blockchains/dark/solana.svg

<svg width="24" height="24" viewBox="0 0 24 24" fill="none" xmlns="http://www.w3.org/2000/svg">
  <rect width="24" height="24" rx="12" fill="#080530" />
  <mask
    id="mask0_1131_18490"
    style="mask-type: alpha"
    maskUnits="userSpaceOnUse"
    x="4"
    y="4"
    width="16"
    height="16"
  >
    <rect x="4" y="4" width="16" height="16" fill="#D9D9D9" />
  </mask>
  <g mask="url(#mask0_1131_18490)">
    <path
      fill-rule="evenodd"
      clip-rule="evenodd"
      d="M5.52337 10.5973H16.7082C16.8484 10.5973 16.9814 10.6525 17.0781 10.7509L18.8476 12.5197C19.1739 12.8461 18.9418 13.4029 18.4777 13.4029H7.29283C7.15263 13.4029 7.01968 13.3477 6.92299 13.2493L5.15352 11.4805C4.82477 11.1541 5.05924 10.5973 5.52337 10.5973ZM5.15352 8.25248L6.92299 6.48368C7.0221 6.38528 7.15505 6.33008 7.29283 6.33008H18.4753C18.9394 6.33008 19.1739 6.88688 18.8451 7.21328L17.0781 8.98208C16.979 9.08048 16.846 9.13568 16.7082 9.13568H5.52337C5.05924 9.13568 4.82477 8.57888 5.15352 8.25248ZM18.8451 15.7477L17.0757 17.5165C16.9766 17.6149 16.8436 17.6701 16.7058 17.6701H5.52337C5.05924 17.6701 4.82477 17.1133 5.15352 16.7869L6.92299 15.0181C7.0221 14.9197 7.15505 14.8645 7.29283 14.8645H18.4753C18.9394 14.8645 19.1739 15.4213 18.8451 15.7477Z"
      fill="white"
    />
  </g>
</svg>

<svg
  xmlns="http://www.w3.org/2000/svg"
  width="24"
  height="24"
  fill="none"
  xmlns:v="https://vecta.io/nano"
>
  <rect width="24" height="24" rx="12" fill="#080530" />
  <mask id="A" maskUnits="userSpaceOnUse" x="4" y="4" width="16" height="16" mask-type="alpha">
    <path fill="#d9d9d9" d="M4 4h16v16H4z" />
  </mask>
  <g mask="url(#A)">
    <path
      fill-rule="evenodd"
      d="M5.523 10.597h11.185c.14 0 .273.055.37.154l1.77 1.769a.52.52 0 0 1-.37.883H7.293c-.14 0-.273-.055-.37-.154l-1.769-1.769a.52.52 0 0 1 .37-.883zm-.37-2.345l1.769-1.769c.099-.098.232-.154.37-.154h11.182a.52.52 0 0 1 .37.883l-1.767 1.769c-.099.098-.232.154-.37.154H5.523a.52.52 0 0 1-.37-.883zm13.692 7.495l-1.769 1.769c-.099.098-.232.154-.37.154H5.523a.52.52 0 0 1-.37-.883l1.769-1.769c.099-.098.232-.154.37-.154h11.182a.52.52 0 0 1 .37.883z"
      fill="#fff"
    />
  </g>
</svg>
